X: 32121
T: Peter Barnes
R: jig
M: 6/8
K: Amajor
|:A3 Ace|a3 aga|fdd dcd|ecc cBA|
A3 Ace|a3 aga|fff gfg|1 aec A3:|2 aec Aab||
|:c'c'c' c'ba|bee ebc'|d'c'd' d'c'b|c'aa aab|
c'c'c' c'ba|bee efg|afe dcB|1 AAA aab:|2 AAA a3||

